assets/icons/qvision/text_rotation_angledown.svg

<svg width="24" height="24" viewBox="0 0 24 24" fill="none" xmlns="http://www.w3.org/2000/svg">
<g clip-path="url(#clip0_147_4855)">
<path d="M19.4 4.90998L18.34 3.84998L7.20001 8.26998L8.68001 9.74998L10.87 8.82998L14.41 12.37L13.49 14.56L14.97 16.04L19.4 4.90998ZM12.59 8.00998L17.46 5.77998L15.23 10.65L12.59 8.00998ZM14.27 21V16.76L12.86 18.17L4.02001 9.32998L2.60001 10.75L11.44 19.59L10.03 21H14.27Z" fill="#323232"/>
</g>
<defs>
<clipPath id="clip0_147_4855">
<rect width="24" height="24" fill="white"/>
</clipPath>
</defs>
</svg>

<svg xmlns="http://www.w3.org/2000/svg" height="24" viewBox="0 0 24 24" width="24"><path d="M0 0h24v24H0z" fill="none"/><path d="M19.4 4.91l-1.06-1.06L7.2 8.27l1.48 1.48 2.19-.92 3.54 3.54-.92 2.19 1.48 1.48L19.4 4.91zm-6.81 3.1l4.87-2.23-2.23 4.87-2.64-2.64zM14.27 21v-4.24l-1.41 1.41-8.84-8.84-1.42 1.42 8.84 8.84L10.03 21h4.24z"/></svg>
